images/icons/instagramm-icon.svg

<svg width="32" height="32" viewBox="0 0 32 32" fill="none" xmlns="http://www.w3.org/2000/svg">
<path d="M15.9999 0C7.17762 0 0 7.17757 0 16C0 24.8224 7.17762 32 15.9999 32C24.8224 32 32 24.8224 32 16C32 7.17757 24.8221 0 15.9999 0ZM15.9999 30.4219C8.04767 30.4219 1.57808 23.9521 1.57808 16C1.57808 8.04787 8.04767 1.57806 15.9999 1.57806C23.9521 1.57806 30.4219 8.04787 30.4219 16C30.4219 23.9521 23.9521 30.4219 15.9999 30.4219Z" fill="#484E53"/>
<path d="M21.002 8.29346H10.9891C9.51225 8.29346 8.31055 9.49489 8.31055 10.972V21.0308C8.31055 22.5076 9.51199 23.7093 10.9891 23.7093H21.0017C22.4785 23.7093 23.6802 22.5079 23.6802 21.0308V10.9717C23.6802 9.49489 22.4788 8.29346 21.002 8.29346ZM18.3116 15.9728C18.3116 17.25 17.2727 18.2889 15.9955 18.2889C14.7183 18.2889 13.6794 17.25 13.6794 15.9728C13.6794 15.3393 13.9356 14.7648 14.3491 14.3464H17.6417C18.0712 14.7787 18.312 15.3635 18.3116 15.9728ZM18.9831 10.4365H21.3292V12.8533H18.9831V10.4365ZM21.002 22.131H10.9891C10.6973 22.1306 10.4176 22.0146 10.2113 21.8083C10.005 21.602 9.88897 21.3223 9.88862 21.0305V14.3464H12.4619C12.225 14.8559 12.1019 15.4109 12.1014 15.9728C12.1014 18.1203 13.8483 19.867 15.9955 19.867C18.1428 19.867 19.8897 18.1201 19.8897 15.9728C19.8897 15.3919 19.7582 14.8422 19.5291 14.3464H22.1022V21.0305C22.1018 21.3222 21.9858 21.6019 21.7796 21.8082C21.5733 22.0145 21.2937 22.1306 21.002 22.131Z" fill="#484E53"/>
</svg>

<svg xmlns="http://www.w3.org/2000/svg" width="32" height="32" fill="none"><path fill="#484E53" d="M16 0C7.178 0 0 7.178 0 16s7.178 16 16 16 16-7.178 16-16S24.822 0 16 0m0 30.422c-7.952 0-14.422-6.47-14.422-14.422S8.048 1.578 16 1.578 30.422 8.048 30.422 16 23.952 30.422 16 30.422"/><path fill="#484E53" d="M21.002 8.293H10.989a2.68 2.68 0 0 0-2.678 2.679v10.059a2.68 2.68 0 0 0 2.678 2.678h10.013a2.68 2.68 0 0 0 2.678-2.678V10.97a2.68 2.68 0 0 0-2.678-2.678m-2.69 7.68a2.32 2.32 0 0 1-2.317 2.316 2.32 2.32 0 0 1-2.316-2.316c0-.634.257-1.208.67-1.627h3.293c.43.433.67 1.018.67 1.627m.671-5.536h2.346v2.416h-2.346zm2.019 11.694H10.989a1.1 1.1 0 0 1-1.1-1.1v-6.685h2.573a3.9 3.9 0 0 0-.36 1.627 3.9 3.9 0 0 0 3.893 3.894 3.9 3.9 0 0 0 3.895-3.894c0-.581-.132-1.13-.36-1.627h2.572v6.685a1.1 1.1 0 0 1-1.1 1.1"/></svg>
